X:84
T: Out On The Ocean
M: 6/8
L: 1/8
Z:abc-transcription Josh Larios <hades@elsewhere.org>, 2015.10.27
N:In the second half of the B part, the G, D, C, G progression could also be G, D, C, Em, or just G.
G:Key: G
K: G
|:GE|"G"D2B BAG|BdB A2B|"C"GED G2A|"D"B2B AGE|
"G"D2B BAG|BdB A2B|"C"GED G2A|"D"BGF "G"G:|
[|Bd|"Em"e2e edB|ege edB|"Bm"d2 d dBA|d2 d dBA|
"G"G2A "(D)"B2d|"(C)"ege "(G)"dBA|"C"GED G2A|"D"BGF "G"GBd|
"Em"e2e edB|ege edB|"Bm"d2B def|"C"gfe "D"dBA|
"G"G2A "(D)"B2d|"(C)"ege "(G)"dBA|"C"GED G2A|"D"BGF "G"G |]

